X: 22165
T: L'Espoir
R: barndance
M: 4/4
K: Dminor
Ade f2 e2 d|eBA g2 afe|Adef eeAG|BAA=B ^cABc|
dAef2 e2 d|eBA g2 afe|Adef eeAG|BABc defg||
|:adc' b2 agf|efgc bagf|defd gdef|1 e^de g2 ab1/2a1/2g:|2 eBA d3 ^c2||

